X: 337
T: Kangri xiaochang
%%abc-version 2.0
%%abcx-abcm2ps-target-version 5.9.1 (29 Sep 2008)
%%abc-creator hum2abc beta
%%abcx-conversion-date 2013/10/02 07:52:30
%%abc-edited-by Helmut Schaffrath
%%humdrum-veritas 3260122246
%%humdrum-veritas-data 4276214230
%%continueall 1
%%barnumbers 0
L: 1/8
M: 2/4
K: F
F F/ E/ D C [I:setbarnb 1]| 
c> d A c | 
f e/ d/ c/ d/ c/ A/ | 
c G/ A/G2 | 
G> A c d | 
f> e d c | 
c G/ A/ G D/ E/ | 
C4 | 
C C/ D/F2 | 
G> A c d | 
c A G F | 
E D/ C/D2 | 
c> d A c | 
f e/ d/ c A | 
c c/ d/ c F | 
G> A G/ F/ E/ D/ | 
C4 |]  



